X:1
T:Wildflower Mazurka
T:Wildflower Mazurka
T:James Buckley
C:James Buckley
L:1/8
M:3/4
K:A
V:1 treble 
V:1
 E | A>G A2 [A,EAc] | B>G E2 [EGd]2 | c>d e>c A>c | c>B [EGB]2 E2 | A>G A2 [A,EAc]2 | %6
 B>G E2 [EGd]2 | c>e d>c B>c | B>A A2 z :: (3(EGB e2) e2 | (3(EAc e2) e2 | d>cB>^AB>^B | %12
 c>BA>G A z | (3(EGB e2) e2 | (3(EAc e2) e2 | d>cB>^AB>e | [A,A]2 [A,A]2 z2 :| A,(CEAc)d | %18
 e>c A2 A2 | e(dBG E2) | e(cAE C2) | A,(CEAc)d | e>c A2 A2 | (3edB (3GFE (3dFG | A2 C2 z2 || %25

